X: 36
T: MARY AND MAURICE COOPER
C: Andrew Rankine
R: strathspey
B: "The Complete Andrew Rankine Collection of Scottish Country Dance Tunes" p.40 #2
Z: 2017 John Chambers <jc:trillian.mit.edu>
M: C
L: 1/8
K: A
e>d |:\
"A"c>d e>c A>A A>B | "D"A>B A>F "Bm"D>D D>F |\
"A"E>E E>F "F#m"A>A [1 A>B | "A"c>e "Bm"d>c "E7"B2 e>d :|
[2 "F#m"A>c | "Bm"B>A "E7"B<c "A"A2 c>d |]\
"A"e2 c>d "F#7"e>e e>c | "Bm"d2 f>d "E7"B>B B>d |\
"A"c>d e>c "F#m"A<A A<c |
"B7"B>A G>A "E7"B2 c>d |\
"A"e2 c>d "F#7"e>e e>c | "Bm"d2 f>d "E7"B>B B>d |\
"A"c>d e>c "F#m"A>A A>c | "Bm"B>A "E7"B<c "A"A2- A2 |]

%%sep 1 1 500

